app/assets/images/houses/house_placeholder.svg

<svg width="512" height="512" xmlns="http://www.w3.org/2000/svg">
  <g fill="#D6D8E1" fill-rule="nonzero">
    <path d="M135.91 462.046c-3.465-20.062-21.001-35.379-42.044-35.379-16.802 0-31.36 9.762-38.315 23.91a36.294 36.294 0 00-4.352-2.637V307.2a8.536 8.536 0 00-8.533-8.533 8.536 8.536 0 00-8.533 8.533v136.533C15.309 443.733 0 459.042 0 477.867 0 496.692 15.309 512 34.133 512H128c14.114 0 25.6-11.486 25.6-25.6 0-11.358-7.433-21.009-17.69-24.354zM128 494.933H34.133c-9.412 0-17.067-7.654-17.067-17.067S24.721 460.8 34.133 460.8c7.962 0 15.036 4.625 17.604 11.52a8.526 8.526 0 009.515 5.41 8.53 8.53 0 007.014-8.397c0-14.114 11.486-25.6 25.6-25.6s25.6 11.486 25.6 25.6a8.536 8.536 0 008.533 8.533c4.702 0 8.533 3.831 8.533 8.533s-3.83 8.534-8.532 8.534z" />
    <path d="M503.467 68.267H341.333A8.536 8.536 0 00332.8 76.8a8.536 8.536 0 008.533 8.533h153.6v184.201l-232.9-232.9a8.532 8.532 0 00-6.059-2.5 8.536 8.536 0 00-6.059 2.5L17.067 269.525V85.333h93.867a8.536 8.536 0 008.533-8.533V42.667a8.536 8.536 0 00-8.533-8.533H102.4V17.067h51.2v17.067h-8.533a8.536 8.536 0 00-8.533 8.533V76.8a8.536 8.536 0 008.533 8.533h25.6A8.536 8.536 0 00179.2 76.8a8.536 8.536 0 00-8.533-8.533H153.6V51.2h8.533a8.536 8.536 0 008.533-8.533V8.533A8.536 8.536 0 00162.133 0H93.867a8.536 8.536 0 00-8.533 8.533v34.133a8.536 8.536 0 008.533 8.533h8.533v17.067H8.533a8.513 8.513 0 00-6.033 2.5A8.517 8.517 0 000 76.8l.034 213.333a8.533 8.533 0 008.534 8.534c2.227 0 4.412-.87 6.033-2.5l241.373-241.46 241.459 241.459a8.535 8.535 0 009.301 1.851 8.547 8.547 0 005.265-7.885V76.8c.001-4.71-3.822-8.533-8.532-8.533z" />
    <path d="M477.867 443.733V307.2a8.536 8.536 0 00-8.533-8.533 8.536 8.536 0 00-8.533 8.533v140.74c-1.51.785-2.978 1.655-4.352 2.637-6.955-14.148-21.513-23.91-38.315-23.91-21.043 0-38.579 15.317-42.044 35.379-10.257 3.345-17.69 12.996-17.69 24.354 0 3.012.614 5.854 1.579 8.533H213.333a8.536 8.536 0 00-8.533 8.533 8.536 8.536 0 008.533 8.533h264.533C496.691 512 512 496.691 512 477.867c0-18.824-15.309-34.134-34.133-34.134zm0 51.2H384c-4.702 0-8.533-3.831-8.533-8.533s3.831-8.533 8.533-8.533a8.536 8.536 0 008.533-8.533c0-14.114 11.486-25.6 25.6-25.6s25.6 11.486 25.6 25.6a8.53 8.53 0 007.014 8.397c4.053.742 8.073-1.545 9.515-5.41 2.568-6.895 9.643-11.52 17.604-11.52 9.412 0 17.067 7.654 17.067 17.067s-7.654 17.065-17.066 17.065zM290.133 170.667c0-18.825-15.309-34.133-34.133-34.133-18.825 0-34.133 15.309-34.133 34.133 0 18.824 15.308 34.133 34.133 34.133 18.825 0 34.133-15.309 34.133-34.133zm-51.2 0c0-9.412 7.654-17.067 17.067-17.067 9.412 0 17.067 7.654 17.067 17.067 0 9.412-7.654 17.067-17.067 17.067-9.412-.001-17.067-7.655-17.067-17.067z" />
    <path d="M418.133 290.133h-68.267a8.536 8.536 0 00-8.533 8.533v93.867H332.8a8.536 8.536 0 00-8.533 8.533 8.536 8.536 0 008.533 8.533h102.4a8.536 8.536 0 008.533-8.533 8.536 8.536 0 00-8.533-8.533h-8.533v-93.867c0-4.71-3.823-8.533-8.534-8.533zm-8.533 102.4h-51.2V358.4h51.2v34.133zm0-51.2h-51.2V307.2h51.2v34.133z" />
    <path d="M341.333 469.333a8.536 8.536 0 00-8.533-8.533h-25.6V298.667a8.536 8.536 0 00-8.533-8.533h-85.333a8.536 8.536 0 00-8.533 8.533V460.8h-25.6a8.536 8.536 0 00-8.533 8.533v34.133a8.536 8.536 0 008.533 8.533 8.536 8.536 0 008.533-8.533v-25.6H332.8c4.71.001 8.533-3.822 8.533-8.533zm-51.2-93.866H281.6a8.536 8.536 0 00-8.533 8.533 8.536 8.536 0 008.533 8.533h8.533V460.8h-68.267V307.2h68.267v68.267z" />
    <path d="M162.133 290.133H93.867a8.536 8.536 0 00-8.533 8.533v93.867H76.8a8.536 8.536 0 00-8.533 8.533c0 4.71 3.823 8.534 8.533 8.534h102.4a8.536 8.536 0 008.533-8.533 8.536 8.536 0 00-8.533-8.533h-8.533v-93.867a8.537 8.537 0 00-8.534-8.534zm-8.533 102.4h-51.2V358.4h51.2v34.133zm0-51.2h-51.2V307.2h51.2v34.133z" />
  </g>
</svg>

<?xml version="1.0" encoding="UTF-8"?>
<svg width="512px" height="512px" viewBox="0 0 512 512" version="1.1" xmlns="http://www.w3.org/2000/svg" xmlns:xlink="http://www.w3.org/1999/xlink">
    <!-- Generator: Sketch 54.1 (76490) - https://sketchapp.com -->
    <title>house_placeholder1 2</title>
    <desc>Created with Sketch.</desc>
    <g id="Page-1" stroke="none" stroke-width="1" fill="none" fill-rule="evenodd">
        <g id="house_placeholder1-2" fill="#D6D8E1" fill-rule="nonzero">
            <g id="house_placeholder1">
                <path d="M135.91,462.046 C132.445,441.984 114.909,426.667 93.866,426.667 C77.064,426.667 62.506,436.429 55.551,450.577 C54.177,449.596 52.709,448.725 51.199,447.94 L51.199,307.2 C51.199,302.49 47.376,298.667 42.666,298.667 C37.956,298.667 34.133,302.49 34.133,307.2 L34.133,443.733 C15.309,443.733 0,459.042 0,477.867 C0,496.692 15.309,512 34.133,512 L128,512 C142.114,512 153.6,500.514 153.6,486.4 C153.6,475.042 146.167,465.391 135.91,462.046 Z M128,494.933 L34.133,494.933 C24.721,494.933 17.066,487.279 17.066,477.866 C17.066,468.453 24.721,460.8 34.133,460.8 C42.095,460.8 49.169,465.425 51.737,472.32 C53.179,476.186 57.173,478.464 61.252,477.73 C65.314,476.996 68.266,473.463 68.266,469.333 C68.266,455.219 79.752,443.733 93.866,443.733 C107.98,443.733 119.466,455.219 119.466,469.333 C119.466,474.043 123.289,477.866 127.999,477.866 C132.701,477.866 136.532,481.697 136.532,486.399 C136.532,491.101 132.702,494.933 128,494.933 Z" id="Shape" style="mix-blend-mode: lighten;"></path>
                <path d="M503.467,68.267 L341.333,68.267 C336.623,68.267 332.8,72.09 332.8,76.8 C332.8,81.51 336.623,85.333 341.333,85.333 L494.933,85.333 L494.933,269.534 L262.033,36.634 C260.36,34.961 258.167,34.134 255.974,34.134 C253.781,34.134 251.588,34.962 249.915,36.634 L17.067,269.525 L17.067,85.333 L110.934,85.333 C115.644,85.333 119.467,81.51 119.467,76.8 L119.467,42.667 C119.467,37.957 115.644,34.134 110.934,34.134 L102.4,34.134 L102.4,17.067 L153.6,17.067 L153.6,34.134 L145.067,34.134 C140.357,34.134 136.534,37.957 136.534,42.667 L136.534,76.8 C136.534,81.51 140.357,85.333 145.067,85.333 L170.667,85.333 C175.377,85.333 179.2,81.51 179.2,76.8 C179.2,72.09 175.377,68.267 170.667,68.267 L153.6,68.267 L153.6,51.2 L162.133,51.2 C166.843,51.2 170.666,47.377 170.666,42.667 L170.666,8.533 C170.666,3.823 166.843,0 162.133,0 L93.867,0 C89.157,0 85.334,3.823 85.334,8.533 L85.334,42.666 C85.334,47.376 89.157,51.199 93.867,51.199 L102.4,51.199 L102.4,68.266 L8.533,68.266 C6.272,68.266 4.096,69.162 2.5,70.766 C0.896,72.363 0,74.539 0,76.8 L0.034,290.133 C0.034,293.589 2.116,296.695 5.308,298.018 C6.366,298.453 7.467,298.667 8.568,298.667 C10.795,298.667 12.98,297.797 14.601,296.167 L255.974,54.707 L497.433,296.166 C499.063,297.796 501.247,298.666 503.466,298.666 C504.567,298.666 505.676,298.453 506.734,298.017 C509.917,296.694 511.999,293.58 511.999,290.132 L511.999,76.8 C512,72.09 508.177,68.267 503.467,68.267 Z" id="Path" style="mix-blend-mode: lighten;"></path>
                <path d="M477.867,443.733 L477.867,307.2 C477.867,302.49 474.044,298.667 469.334,298.667 C464.624,298.667 460.801,302.49 460.801,307.2 L460.801,447.94 C459.291,448.725 457.823,449.595 456.449,450.577 C449.494,436.429 434.936,426.667 418.134,426.667 C397.091,426.667 379.555,441.984 376.09,462.046 C365.833,465.391 358.4,475.042 358.4,486.4 C358.4,489.412 359.014,492.254 359.979,494.933 L213.333,494.933 C208.623,494.933 204.8,498.756 204.8,503.466 C204.8,508.176 208.623,511.999 213.333,511.999 L384,511.999 L418.133,511.999 L477.866,511.999 C496.691,512 512,496.691 512,477.867 C512,459.043 496.691,443.733 477.867,443.733 Z M477.867,494.933 L418.134,494.933 L384,494.933 C379.298,494.933 375.467,491.102 375.467,486.4 C375.467,481.698 379.298,477.867 384,477.867 C388.71,477.867 392.533,474.044 392.533,469.334 C392.533,455.22 404.019,443.734 418.133,443.734 C432.247,443.734 443.733,455.22 443.733,469.334 C443.733,473.464 446.686,476.997 450.747,477.731 C454.8,478.473 458.82,476.186 460.262,472.321 C462.83,465.426 469.905,460.801 477.866,460.801 C487.278,460.801 494.933,468.455 494.933,477.868 C494.933,487.281 487.279,494.933 477.867,494.933 Z" id="Shape" style="mix-blend-mode: lighten;"></path>
                <path d="M290.133,170.667 C290.133,151.842 274.824,136.534 256,136.534 C237.175,136.534 221.867,151.843 221.867,170.667 C221.867,189.491 237.175,204.8 256,204.8 C274.825,204.8 290.133,189.491 290.133,170.667 Z M238.933,170.667 C238.933,161.255 246.587,153.6 256,153.6 C265.412,153.6 273.067,161.254 273.067,170.667 C273.067,180.079 265.413,187.734 256,187.734 C246.588,187.733 238.933,180.079 238.933,170.667 Z" id="Shape" style="mix-blend-mode: lighten;"></path>
                <path d="M418.133,290.133 L349.866,290.133 C345.156,290.133 341.333,293.956 341.333,298.666 L341.333,392.533 L332.8,392.533 C328.09,392.533 324.267,396.356 324.267,401.066 C324.267,405.776 328.09,409.599 332.8,409.599 L435.2,409.599 C439.91,409.599 443.733,405.776 443.733,401.066 C443.733,396.356 439.91,392.533 435.2,392.533 L426.667,392.533 L426.667,298.666 C426.667,293.956 422.844,290.133 418.133,290.133 Z M409.6,392.533 L358.4,392.533 L358.4,358.4 L409.6,358.4 L409.6,392.533 Z M409.6,341.333 L358.4,341.333 L358.4,307.2 L409.6,307.2 L409.6,341.333 Z" id="Shape" style="mix-blend-mode: lighten;"></path>
                <path d="M341.333,469.333 C341.333,464.623 337.51,460.8 332.8,460.8 L307.2,460.8 L307.2,298.667 C307.2,293.957 303.377,290.134 298.667,290.134 L213.334,290.134 C208.624,290.134 204.801,293.957 204.801,298.667 L204.801,460.8 L179.201,460.8 C174.491,460.8 170.668,464.623 170.668,469.333 L170.668,503.466 C170.668,508.176 174.491,511.999 179.201,511.999 C183.911,511.999 187.734,508.176 187.734,503.466 L187.734,477.866 L332.8,477.866 C337.51,477.867 341.333,474.044 341.333,469.333 Z M290.133,375.467 L281.6,375.467 C276.89,375.467 273.067,379.29 273.067,384 C273.067,388.71 276.89,392.533 281.6,392.533 L290.133,392.533 L290.133,460.8 L221.866,460.8 L221.866,307.2 L290.133,307.2 L290.133,375.467 L290.133,375.467 Z" id="Shape" style="mix-blend-mode: lighten;"></path>
                <path d="M162.133,290.133 L93.867,290.133 C89.157,290.133 85.334,293.956 85.334,298.666 L85.334,392.533 L76.8,392.533 C72.09,392.533 68.267,396.356 68.267,401.066 C68.267,405.776 72.09,409.6 76.8,409.6 L179.2,409.6 C183.91,409.6 187.733,405.777 187.733,401.067 C187.733,396.357 183.91,392.534 179.2,392.534 L170.667,392.534 L170.667,298.667 C170.667,293.956 166.844,290.133 162.133,290.133 Z M153.6,392.533 L102.4,392.533 L102.4,358.4 L153.6,358.4 L153.6,392.533 Z M153.6,341.333 L102.4,341.333 L102.4,307.2 L153.6,307.2 L153.6,341.333 Z" id="Shape" style="mix-blend-mode: lighten;"></path>
            </g>
        </g>
    </g>
</svg>
